X:1
T:Jesu redemptor omnium
T:Jesu redemptor omnium
T:G.Ett (1788-1847)
C:G.Ett (1788-1847)
%%score [ 1 2 3 4 ]
L:1/8
Q:1/4=120
M:3/4
K:Eb
V:1 treble nm="Alto"
V:2 treble-8 nm="Tenor I"
V:3 treble-8 nm="Tenor II"
V:4 bass nm="Bass"
V:1
 E2 E2 E2 | E4 F2 | G3 G G2 | A2 A2 A2 | G3 G G2 | F3 F F2 | E2 E2 E2 | F4 E2 | D3 D D2 | %9
w: Je- su Re-|dem- ptor|om- ni- um,|quem lu- cis|an- te o-|ri- gi- nem|pa- rem pa-|ter- nae|glo- ri- ae|
w: Je- su ti-|bi sit|glo- ri- a|qui na- tus|est de Vir-|gi- ne cum|Pa- tre et|al- mo|Spi- ri- tu.|
 E2 E2 E2 | E4 E2 | (E2 DC) D2 | E6 || E6 | E6 |] %15
w: pa- ter su-|pre- mus|e- * * *|dit.|A-|men.|
w: In sem- pi-|ter- na|sae- * * cu-|la.|||
V:2
 B2 B2 B2 | c4 d2 | e3 e e2 | e2 e2 d2 | e3 e e2 | d3 d d2 | c2 c2 c2 | c4 c2 | =B3 B B2 | %9
w: Je- su Re-|dem- ptor|om- ni- um,|quem lu- cis|an- te o-|ri- gi- nem|pa- rem pa-|ter- nae|glo- ri- ae|
w: Je- su ti-|bi sit|glo- ri- a|qui na- tus|est de Vir-|gi- ne cum|Pa- tre et|al- mo|Spi- ri- tu.|
 c2 c2 c2 | c4 B2 | B4 B2 | B6 || c6 | B6 |] %15
w: pa- ter su-|pre- mus|e- *|dit.|A-|men.|
w: In sem- pi-|ter- na|sae- cu-|la.|||
V:3
 G2 G2 G2 | A4 A2 | B3 B B2 | c2 c2 A2 | B3 B B2 | B3 B B2 | G2 G2 G2 | A4 G2 | G3 G G2 | %9
w: Je- su Re-|dem- ptor|om- ni- um,|quem lu- cis|an- te o-|ri- gi- nem|pa- rem pa-|ter- nae|glo- ri- ae|
w: Je- su ti-|bi sit|glo- ri- a|qui na- tus|est de Vir-|gi- ne cum|Pa- tre et|al- mo|Spi- ri- tu.|
 G2 G2 G2 | A4 G2 | F4 F2 | G6 || A6 | G6 |] %15
w: pa- ter su-|pre- mus|e- *|dit.|A-|men.|
w: In sem- pi-|ter- na|sae- cu-|la.|||
V:4
 E,2 E,2 E,2 | A,4 F,2 | E,3 E, E,2 | A,,2 A,2 F,2 | E,3 E, E,2 | B,,3 B,, B,,2 | C,2 C,2 C,2 | %7
w: Je- su Re-|dem- ptor|om- ni- um,|quem lu- cis|an- te o-|ri- gi- nem|pa- rem pa-|
w: Je- su ti-|bi sit|glo- ri- a|qui na- tus|est de Vir-|gi- ne cum|Pa- tre et|
 F,4 C,2 | G,3 G, G,2 | C,2 C,2 C,2 | A,,4 E,2 | B,,4 B,,2 | E,6 || A,,6 | E,6 |] %15
w: ter- nae|glo- ri- ae|pa- ter su-|pre- mus|e- *|dit.|A-|men.|
w: al- mo|Spi- ri- tu.|In sem- pi-|ter- na|sae- cu-|la.|||

